X:1
T:Keep On Singing
T:Keep On Singing
T:Agnes C. Ellingwood
T:Agnes C. Ellingwood, 1915
T:Public Domain Courtesy of the Cyber Hymnal™
T:Public Domain Courtesy of the Cyber Hymnal™
C:Agnes C. Ellingwood
Z:Public Domain
Z:Courtesy of the Cyber Hymnal™
%%score 1 ( 2 3 )
L:1/8
Q:1/4=92
M:4/4
K:Ab
V:1 treble 
V:2 bass 
V:3 bass 
V:1
 [Ec][DB] | [CA][CE][A,C][B,D] [CE] [CA]2 [Ec] | [DB][DB][DF][DF] [DB]2 [DB][FA] | %3
w: 1.~Have you|grown dis- cour- aged, wear- y, A-|mid the cares of life? Do you|
w: 2.~Do you|wan- der from the Sav- ior, And|some- times lose the way? Does the|
w: 3.~Hear the|Sav- ior gent- ly plead- ing, “Come|lay your sins on Me; I will|
 [DG][DA][DG][DF] [DE] [Gd]2 [Gd] | [Ec]>[DB] [CA][DB] [Ec]2 [Ec][DB] | %5
w: oft- en grow dis- heart- ened And|fal- ter in the strife? Je- sus|
w: tempt- er oft as- sail you And|beck- on day by day? Ne- ver|
w: give you full sal- va- tion, Will|par- don, set you free”; Just be-|
 [CA][CE][A,C][B,D] [CE] [CA]2 [Ec] | [EB][EB][Ec][_Gc] [Fd]3 [Fd] | %7
w: knows a- bout the bur- den, He’ll|bear you safe- ly thro’; Then|
w: fear! be strong, cour- a- geous, The|Lord will sure- ly win; He’ll|
w: lieve His pre- cious prom- ise, Ac-|cept Him for your own; Come|
 [DF][EG][EA][EB] [Ec] [Ee]2 [Fd] | [Ec]2 [DB]2 [CA]4 ||"^Refrain" [Ee]2 [Ec]2 [CA] [Ec]2 [Ec] | %10
w: sing a song of glad- ness, He’ll|care for you.||
w: con- quer ev- ery tri- al And|save from sin.|Keep on sing- ing! The|
w: sing your psalms of glad- ness Be-|fore His throne.||
 [FB][FA][EG][DF] [CE]4 | [Ee]2 [Ec]2 [CA] [Ec]2 [Ec] | [=DB][DF][DG][DA] [EB]4 x3 | %13
w: |||
w: world is bright and fair;|God is o’er us, His|love is ev- ery- where;|
w: |||
 [Ee]2 [Ec]2 [CA] [Ec]2 [Ec] | [FB][FA][EG][DF] [Fd]3 [Fd] | [Ec]2 [EB]2 [Ee] [Ee]2 [Fd] | %16
w: |||
w: He will keep you, Just|trust Him all the way, And|keep on sing- ing, Thro’|
w: |||
 [Ec]2 [DB]2 [CA]2 |] %17
w: |
w: ev- ery day.|
w: |
V:2
 [A,,A,][A,,A,] | [A,,A,][A,,A,][A,,E,][A,,E,] [A,,A,] [A,,A,]2 [A,,A,] | %2
 [D,F,][D,F,][D,B,][D,B,] [D,F,]2 [D,F,][=D,B,] | [E,B,][E,B,][E,B,][E,A,] [E,G,] [E,B,]2 [E,B,] | %4
 A,>A, A,A, A,2 [A,,A,][A,,A,] | [A,,A,][A,,A,][A,,E,][A,,E,] [A,,A,] [A,,A,]2 [A,,A,] | %6
 [E,G,][E,G,]A,A, [D,A,]3 [D,A,] | [D,A,][D,B,][C,A,][E,G,] A, [C,A,]2 [D,A,] | %8
 [E,A,]2 [E,G,]2 [A,,A,]4 || [A,C]2 A,2 A, A,2 [A,,A,] | [D,A,][D,D][D,D][D,A,] [A,,A,]4 | %11
 [A,C]2 A,2 A, A,2 [A,,A,] | [B,,A,][A,B,][G,B,][F,B,] z x6 | %13
 [A,,C]2 [A,,A,]2 [A,,E,] [A,,A,]2 [A,,A,] | [D,A,][D,D][D,D][D,A,] [D,A,]3 [D,A,] | %15
 [E,A,]2 [D,G,]2 [C,A,] [C,A,]2 [D,A,] | [E,A,]2 [E,G,]2 [A,,A,]2 |] %17
V:3
 x2 | x8 | x8 | x8 | A,>A, A,A, A,2 x2 | x8 | x2 A,A, x4 | x4 A, x3 | x8 || x2 A,2 A, A,2 x | x8 | %11
 x2 A,2 A, A,2 x | x4 [E,G,]4 D,C,B,, | x8 | x8 | x8 | x6 |] %17

